build/Karasa-Jaga/scalable/status/software-update-urgent-symbolic.svg

<svg height="16" width="16" xmlns="http://www.w3.org/2000/svg"><path d="m6.40625 0c-.4547356 0-.8125.39917597-.8125.90625v6.875h-3.96875a.60480376.40721971 0 0 0 -.53125.625l6.40625 7.375a.60480376.40721971 0 0 0 .4375.21875.60480376.40721971 0 0 0 .625-.21875l6.34375-7.4375a.60480376.40721971 0 0 0 -.5625-.59375h-3.9375v-6.84375c0-.50707403-.357764-.90625-.8125-.90625z" fill="#f00"/><path d="m7.59375 2.3247171c-.308826 0-.5625.3099461-.5625.71875v5.375c0 .4088039.253674.75.5625.75h.8125c.308826 0 .5625-.3411961.5625-.75v-5.375c0-.4088039-.253674-.71875-.5625-.71875zm.40625 7.9999999c-.6545597 0-1.1875.53294-1.1875 1.1875s.5329403 1.1875 1.1875 1.1875 1.1875-.53294 1.1875-1.1875-.5329403-1.1875-1.1875-1.1875z" fill="#fff"/></svg>

<?xml version="1.0" encoding="UTF-8" standalone="no"?>
<!-- Created with Inkscape (http://www.inkscape.org/) -->

<svg
   xmlns:dc="http://purl.org/dc/elements/1.1/"
   xmlns:cc="http://creativecommons.org/ns#"
   xmlns:rdf="http://www.w3.org/1999/02/22-rdf-syntax-ns#"
   xmlns:svg="http://www.w3.org/2000/svg"
   xmlns="http://www.w3.org/2000/svg"
   xmlns:sodipodi="http://sodipodi.sourceforge.net/DTD/sodipodi-0.dtd"
   xmlns:inkscape="http://www.inkscape.org/namespaces/inkscape"
   id="svg7384"
   height="16"
   width="16"
   version="1.1"
   inkscape:version="0.48.3.1 r9886"
   sodipodi:docname="software-update-available-symbolic.svg">
  <defs
     id="defs9" />
  <sodipodi:namedview
     pagecolor="#ffffff"
     bordercolor="#666666"
     borderopacity="1"
     objecttolerance="10"
     gridtolerance="10"
     guidetolerance="10"
     inkscape:pageopacity="0"
     inkscape:pageshadow="2"
     inkscape:window-width="1366"
     inkscape:window-height="696"
     id="namedview7"
     showgrid="false"
     inkscape:zoom="15.1875"
     inkscape:cx="2.6601986"
     inkscape:cy="2.9506516"
     inkscape:window-x="0"
     inkscape:window-y="0"
     inkscape:window-maximized="1"
     inkscape:current-layer="svg7384" />
  <metadata
     id="metadata90">
    <rdf:RDF>
      <cc:Work
         rdf:about="">
        <dc:format>image/svg+xml</dc:format>
        <dc:type
           rdf:resource="http://purl.org/dc/dcmitype/StillImage" />
        <dc:title>Gnome Symbolic Icon Theme</dc:title>
      </cc:Work>
    </rdf:RDF>
  </metadata>
  <title
     id="title9167">Gnome Symbolic Icon Theme</title>
  <path
     style="opacity:1;fill:#ff0000;fill-opacity:1;stroke:none"
     d="M 6.40625 0 C 5.9515144 0 5.59375 0.39917597 5.59375 0.90625 L 5.59375 7.78125 L 1.625 7.78125 A 0.60480376 0.40721971 0 0 0 1.09375 8.40625 L 7.5 15.78125 A 0.60480376 0.40721971 0 0 0 7.9375 16 A 0.60480376 0.40721971 0 0 0 8.5625 15.78125 L 14.90625 8.34375 A 0.60480376 0.40721971 0 0 0 14.34375 7.75 L 10.40625 7.75 L 10.40625 0.90625 C 10.40625 0.39917597 10.048486 0 9.59375 0 L 6.40625 0 z "
     id="rect2997" />
  <path
     style="fill:#ffffff;fill-opacity:1;stroke:none"
     d="m 7.59375,2.3247171 c -0.308826,0 -0.5625,0.3099461 -0.5625,0.71875 l 0,5.375 c 0,0.4088039 0.253674,0.75 0.5625,0.75 l 0.8125,0 c 0.308826,0 0.5625,-0.3411961 0.5625,-0.75 l 0,-5.375 c 0,-0.4088039 -0.253674,-0.71875 -0.5625,-0.71875 l -0.8125,0 z M 8,10.324717 c -0.6545597,0 -1.1875,0.53294 -1.1875,1.1875 0,0.65456 0.5329403,1.1875 1.1875,1.1875 0.6545597,0 1.1875,-0.53294 1.1875,-1.1875 0,-0.65456 -0.5329403,-1.1875 -1.1875,-1.1875 z"
     id="rect3774"
     inkscape:connector-curvature="0" />
</svg>
